Adwaita++/actions/16/zoom-out-y.svg

<svg height="16" viewBox="0 0 16 16" width="16" xmlns="http://www.w3.org/2000/svg">
  <path d="m9 1.9980469v2h3v3h2v-3.78125c0-.66986-.5248-1.21875-1.1875-1.21875zm-7 .0039062v6h6v-6zm8 6v2.9999999h-2l3 3 3-3h-2v-2.9999999zm-8 .9960938v3.7812501c0 .66976.5248 1.218754 1.1875 1.21875h3.8125v-2h-3v-3.0000001z" fill="#474747"/>
</svg>

<svg xmlns="http://www.w3.org/2000/svg" width="16" height="16" viewBox="0 0 16 16">
 <defs>
  <style id="current-color-scheme" type="text/css">
   .ColorScheme-Text { color:#474747; } .ColorScheme-Highlight { color:#4285f4; }
  </style>
 </defs>
 <path style="fill:currentColor" class="ColorScheme-Text" d="M 9 1.9980469 L 9 3.9980469 L 12 3.9980469 L 12 6.9980469 L 14 6.9980469 L 14 3.2167969 C 14 2.5469369 13.4752 1.9980469 12.8125 1.9980469 L 9 1.9980469 z M 2 2.0019531 L 2 8.0019531 L 8 8.0019531 L 8 2.0019531 L 2 2.0019531 z M 10 8.0019531 L 10 11.001953 L 8 11.001953 L 11 14.001953 L 14 11.001953 L 12 11.001953 L 12 8.0019531 L 10 8.0019531 z M 2 8.9980469 L 2 12.779297 C 2 13.449057 2.5248 13.998051 3.1875 13.998047 L 7 13.998047 L 7 11.998047 L 4 11.998047 L 4 8.9980469 L 2 8.9980469 z"/>
</svg>
